packages/tokens/icons/question/size24Px.svg

<svg viewBox="0 0 24 24" fill="none" xmlns="http://www.w3.org/2000/svg" width="1em" height="1em"><circle cx="12" cy="12" r="9.5" stroke="currentColor" stroke-linecap="round"/><path d="M12.4878 14.5V13.7914C12.4986 13.5144 12.5313 13.2778 12.5857 13.0816C12.6401 12.8853 12.7163 12.7064 12.8143 12.5448C12.9122 12.3717 13.032 12.2101 13.1735 12.06C13.315 11.91 13.4782 11.7368 13.6633 11.5406C13.8483 11.3444 14.0279 11.1539 14.202 10.9692C14.3762 10.773 14.5286 10.5652 14.6592 10.3459C14.7898 10.115 14.8932 9.86686 14.9694 9.60138C15.0565 9.33589 15.1 9.03 15.1 8.68372C15.1 8.33743 15.0347 8.00269 14.9041 7.67949C14.7844 7.35629 14.6048 7.07349 14.3653 6.83109C14.1259 6.57714 13.8265 6.37514 13.4673 6.22509C13.119 6.07503 12.7218 6 12.2755 6C11.8293 6 11.4429 6.06926 11.1163 6.20777C10.8007 6.33474 10.5286 6.49634 10.3 6.69257C10.0823 6.87726 9.90816 7.07349 9.77755 7.28126C9.65782 7.48903 9.56531 7.66795 9.5 7.818" stroke="currentColor" stroke-linecap="round" stroke-linejoin="round"/><path d="M12.5 18.5L12.5 17.5" stroke="currentColor" stroke-linecap="round"/></svg>

<svg xmlns="http://www.w3.org/2000/svg" fill="none" viewBox="0 0 24 24" width="1em" height="1em"><circle cx="12" cy="12" r="9.5" stroke="currentColor" stroke-linecap="round"/><path stroke="currentColor" stroke-linecap="round" stroke-linejoin="round" d="M12.488 14.5v-.709c.01-.277.043-.513.098-.71.054-.196.13-.375.228-.536a2.5 2.5 0 0 1 .36-.485l.49-.52.538-.57a4.12 4.12 0 0 0 .457-.624c.13-.231.234-.48.31-.745.088-.265.131-.571.131-.917 0-.347-.065-.681-.196-1.005-.12-.323-.3-.606-.539-.848a2.581 2.581 0 0 0-.898-.606A2.986 2.986 0 0 0 12.275 6c-.446 0-.832.07-1.159.208a2.906 2.906 0 0 0-.816.485c-.218.184-.392.38-.522.588a5.53 5.53 0 0 0-.278.537"/><path stroke="currentColor" stroke-linecap="round" d="M12.5 18.5v-1"/></svg>
